X:7
T:Highway to Eglington. Ru1.087, The
%%VWML:RutherfordVol1-2248-p44-0p44
Z:Transcription by Village Music Project, Steve Mansfield July 2015
F:http://www.village-music-project.org.uk/
F:http://www.vwml.org/record/RutherfordVol1/2248/p44
L:1/8
Q:1/4=120
K:Ddor
e|cdc cGE|cGEC2e|cdc cGE|dDDD2e|
cdc cGE|GAB cGE|FGF EFE|dDDD2:|
|:e|c>de/f/ gec|cec gec|fgf efe|addd2e|
c>de/f/ gec|agf gec|fgf efe|dDDD2:|
W:The first man hays with his partner and
W:the 2d. woman .| the first woman does
W:the same :| Gallop down the middle and
W:up again and Cast off .|. Right hand
W:& Left :|
T:Wives of Torphican. Ru1.088, The
B:Rutherford's Country Dances Vol 1, 1756
Z:village music project, Ruairidh Greig July 2015
M:6/8
L:1/8
Q:1/4=100
K:D
A|"tr"F2D DFA|E=CEG2E|"tr"F2D DFA|DEDf2d|
ga/g/f/e/ fg/f/e/d/|eEEE2A|F2A Bd/c/B/A/|dDDD2:|
|:g|fef def|gaf eag|fef def|abg "tr"f2d|
gag fgf|eEEE2A|F2ABd/c/B/A/|dDDD2:|
W:Foot it back to back and Cast off one Couple .| foot
W:it back to back and Cast off another Couple :| Lead
W:up to the top foot it, and Cast off .|. Right hand and
W:Left :|
|:
